www/images/clap@2x.svg

<svg fill="none" height="54" viewBox="0 0 55 54" width="55" xmlns="http://www.w3.org/2000/svg"><path d="m43.7965 36.5364-4.1965-4.1094-1.98-8.9424c-.0913-.6349-.4213-1.2132-.9253-1.621-.5039-.4078-1.1451-.6155-1.7972-.5822-.6173.0382-1.197.3044-1.6225.7452-.2567-.2496-.5631-.4447-.9-.5729-.3368-.1282-.697-.1868-1.058-.1723-.2997.0182-.5937.0877-.869.2052l-3.993-3.9096c-.5095-.4677-1.1808-.7279-1.8783-.7279-.6974 0-1.3688.2602-1.8782.7279-.1235.1238-.2341.2595-.33.405-.3093-.3012-.6892-.5233-1.1063-.6468-.4171-.1234-.8587-.1445-1.286-.0613-.4273.0831-.8273.268-1.1649.5383-.3376.2704-.6024.6179-.7713 1.0122l-1.749-1.7172c-.4989-.4891-1.1752-.7636-1.8802-.7631-.705.0006-1.3809.276-1.8791.7658-.4981.4898-.7777 1.1538-.7772 1.846s.2811 1.3558.78 1.8449l.0715.0702c-.3198.1222-.6115.3058-.858.54-.4968.4898-.7756 1.1529-.7756 1.8441s.2788 1.3543.7756 1.8441l2.552 2.5056c-.3167.1249-.6061.3082-.8525.54l-.066.0702c-.2473.2418-.4435.5292-.5774.8457-.1339.3164-.2028.6557-.2028.9984s.0689.682.2028.9984c.1339.3165.3301.6039.5774.8457l10.054 9.9144c.1211.1189.2767.1981.4455.2268l3.5695.6156 2.662 2.619c.1555.1505.3646.2357.583.2376.1083.0002.2156-.0207.3157-.0615.1001-.0407.1909-.1006.2673-.1761l1.1715-1.1826 1.7985 1.8036c.0762.0778.1676.1399.2687.1826.101.0426.2098.065.3198.0658.11-.0008.2187-.0232.3198-.0658.101-.0427.1924-.1048.2687-.1826l8.3765-8.2134c.1551-.1537.242-.3614.242-.5778-.0002-.1068-.0222-.2125-.0647-.3108-.0426-.0983-.1047-.1873-.1828-.2616zm-19.932-17.82c.1988-.1659.4513-.257.7122-.257.261 0 .5134.0911.7123.257l3.861 3.834c-.2775.4663-.3969 1.0071-.341 1.5444-.0049.0304-.0049.0614 0 .0918l.044.1998-5.3295-5.2326c.0904-.1587.2054-.3027.341-.4266zm6.831 24.8238-2.266-2.2302c-.122-.1178-.2772-.1968-.4455-.2268l-3.564-.5832-9.9-9.72c-.0937-.0918-.1679-.2008-.2186-.3208s-.0768-.2486-.0768-.3785.0261-.2585.0768-.3785.1249-.229.2186-.3208l.0715-.0702c.1922-.1793.4471-.2792.7122-.2792s.5201.0999.7123.2792l4.279 4.2012c.159.1256.3598.1889.5635.1776.2038-.0113.3961-.0963.5397-.2387s.2284-.3319.238-.5321c.0095-.2001-.0568-.3967-.1862-.5516l-8.5525-8.4078c-.1771-.1886-.273-.4372-.2677-.6936.0053-.2565.1114-.501.2962-.6824.1847-.1814.4338-.2856.695-.2908s.5144.0889.7065.2628l8.3655 8.2242c.0761.0757.1669.1358.2671.1766.1001.0408.2075.0615.3159.061.1085.0014.2162-.0189.3164-.0597.1003-.0409.191-.1014.2666-.1779.0771-.0748.1384-.164.1802-.2622.0418-.0983.0633-.2037.0633-.3102s-.0215-.2119-.0633-.3102c-.0418-.0982-.1031-.1874-.1802-.2622l-8.3655-8.2242-1.8095-1.7712c-.0945-.0919-.1695-.2012-.2206-.3217-.0512-.1205-.0775-.2497-.0775-.3803 0-.1305.0263-.2598.0775-.3803.0511-.1205.1261-.2298.2206-.3217.1921-.1793.4471-.2792.7122-.2792s.5201.0999.7123.2792l10.1915 9.9954h.0275c.1568.1482.3671.2292.5848.2252.2176-.0041.4247-.0928.5757-.2468.1509-.1539.2334-.3605.2293-.5742-.0041-.2136-.0945-.417-.2513-.5652l-6.7045-6.5502c-.0945-.0919-.1695-.2012-.2206-.3217-.0512-.1205-.0775-.2497-.0775-.3803 0-.1305.0263-.2598.0775-.3803.0511-.1205.1261-.2298.2206-.3217.1921-.1793.4471-.2793.7122-.2793s.5201.1.7123.2793l8.514 8.3646c.1253.125.2887.2063.4655.2316.1767.0254.357-.0067.5135-.0912.1572-.0837.2825-.2154.3569-.3751.0744-.1598.0939-.3389.0556-.5105l-.6215-2.8458c-.0166-.2456.0667-.4876.2317-.6729.165-.1852.3982-.2987.6483-.3153.2425-.0168.4823.0594.6689.2124s.3057.3711.3321.6084v.0756l2.365 10.6866c.0327.1512.1091.2899.22.3996l2.2715 2.2248zm4.158.6426-1.221-1.2366 5.3625-5.265c.1547-.1517.2418-.3576.242-.5724-.0014-.2145-.0883-.42-.242-.5724l-2.695-2.6298-1.815-8.2242-.385-1.701c-.0067-.2793.0933-.5509.2805-.7614.0702-.0854.1579-.1555.2574-.2057.0994-.0502.2084-.0794.3201-.0859.2425-.0168.4823.0594.6689.2124s.3057.3711.3321.6084v.0756l2.0405 9.18c.0327.1524.1113.2916.2255.3996l3.8115 3.7098z" fill="#000"/><path d="m23.8645 18.7164c.1988-.1659.4513-.257.7122-.257.261 0 .5134.0911.7123.257l3.861 3.834c-.2775.4663-.3969 1.0071-.341 1.5444-.0049.0304-.0049.0614 0 .0918l.044.1998-5.3295-5.2326c.0904-.1587.2054-.3027.341-.4266zm6.831 24.8238-2.266-2.2302c-.122-.1178-.2772-.1968-.4455-.2268l-3.564-.5832-9.9-9.72c-.0937-.0918-.1679-.2008-.2186-.3208s-.0768-.2486-.0768-.3785.0261-.2585.0768-.3785.1249-.229.2186-.3208l.0715-.0702c.1922-.1793.4471-.2792.7122-.2792s.5201.0999.7123.2792l4.279 4.2012c.159.1256.3598.1889.5635.1776.2038-.0113.3961-.0963.5397-.2387s.2284-.3319.238-.5321c.0095-.2001-.0568-.3967-.1862-.5516l-8.5525-8.4078c-.1771-.1886-.273-.4372-.2677-.6936.0053-.2565.1114-.501.2962-.6824.1847-.1814.4338-.2856.695-.2908s.5144.0889.7065.2628l8.3655 8.2242c.0761.0757.1669.1358.2671.1766.1001.0408.2075.0615.3159.061.1085.0014.2162-.0189.3164-.0597.1003-.0409.191-.1014.2666-.1779.0771-.0748.1384-.164.1802-.2622.0418-.0983.0633-.2037.0633-.3102s-.0215-.2119-.0633-.3102c-.0418-.0982-.1031-.1874-.1802-.2622l-8.3655-8.2242-1.8095-1.7712c-.0945-.0919-.1695-.2012-.2206-.3217-.0512-.1205-.0775-.2497-.0775-.3803 0-.1305.0263-.2598.0775-.3803.0511-.1205.1261-.2298.2206-.3217.1921-.1793.4471-.2792.7122-.2792s.5201.0999.7123.2792l10.1915 9.9954h.0275c.1568.1482.3671.2292.5848.2252.2176-.0041.4247-.0928.5757-.2468.1509-.1539.2334-.3605.2293-.5742-.0041-.2136-.0945-.417-.2513-.5652l-6.7045-6.5502c-.0945-.0919-.1695-.2012-.2206-.3217-.0512-.1205-.0775-.2497-.0775-.3803 0-.1305.0263-.2598.0775-.3803.0511-.1205.1261-.2298.2206-.3217.1921-.1793.4471-.2793.7122-.2793s.5201.1.7123.2793l8.514 8.3646c.1253.125.2887.2063.4655.2316.1767.0254.357-.0067.5135-.0912.1572-.0837.2825-.2154.3569-.3751.0744-.1598.0939-.3389.0556-.5105l-.6215-2.8458c-.0166-.2456.0667-.4876.2317-.6729.165-.1852.3982-.2987.6483-.3153.2425-.0168.4823.0594.6689.2124s.3057.3711.3321.6084v.0756l2.365 10.6866c.0327.1512.1091.2899.22.3996l2.2715 2.2248zm4.158.6426-1.221-1.2366 5.3625-5.265c.1547-.1517.2418-.3576.242-.5724-.0014-.2145-.0883-.42-.242-.5724l-2.695-2.6298-1.815-8.2242-.385-1.701c-.0067-.2793.0933-.5509.2805-.7614.0702-.0854.1579-.1555.2574-.2057.0994-.0502.2084-.0794.3201-.0859.2425-.0168.4823.0594.6689.2124s.3057.3711.3321.6084v.0756l2.0405 9.18c.0327.1524.1113.2916.2255.3996l3.8115 3.7098z" fill="#fff"/><g fill="#000"><path d="m22.6765 15.66c.2184-.0019.4275-.0871.583-.2376l3.564-3.5424c.1532-.1526.2391-.3582.2391-.5724s-.0859-.4198-.2391-.5724c-.0762-.0757-.167-.1359-.2671-.1769-.1-.0411-.2074-.0622-.3159-.0622-.1084 0-.2158.0211-.3159.0622-.1001.041-.1909.1012-.2671.1769l-3.564 3.4992c-.1317.11-.2249.258-.2664.4228-.0415.1649-.0291.3384.0353.496.0645.1576.1778.2913.3239.3823.146.0909.3175.1345.4902.1245z"/><path d="m16.2745 15.2118c.1547.1517.3644.2369.583.2369s.4283-.0852.583-.2369c.0771-.0748.1384-.164.1802-.2622.0418-.0983.0634-.2037.0634-.3102s-.0216-.2119-.0634-.3102c-.0418-.0982-.1031-.1874-.1802-.2622l-3.564-3.5046c-.1554-.1518-.3658-.2368-.585-.2363s-.4292.0865-.5838.239-.2412.3591-.2407.5743c.0006.2152.0881.4214.2435.5732z"/><path d="m19.7669 14.4234c.2188 0 .4287-.0853.5834-.2372s.2416-.358.2416-.5728v-4.9734c0-.21482-.0869-.42085-.2416-.57275-.1547-.15191-.3646-.23725-.5834-.23725s-.4286.08534-.5833.23725c-.1547.1519-.2417.35793-.2417.57275v4.9518c-.0029.1082.0163.2158.0564.3166.0402.1008.1005.1927.1774.2702s.1688.1391.2704.1811c.1015.0421.2106.0637.3208.0637z"/></g></svg>

<svg width="55" height="54" viewBox="0 0 55 54" fill="none" xmlns="http://www.w3.org/2000/svg">
<path d="M43.7965 36.5364L39.6 32.427L37.62 23.4846C37.5287 22.8497 37.1987 22.2714 36.6947 21.8636C36.1908 21.4558 35.5496 21.2481 34.8975 21.2814C34.2802 21.3196 33.7005 21.5858 33.275 22.0266C33.0183 21.777 32.7119 21.5819 32.375 21.4537C32.0382 21.3255 31.678 21.2669 31.317 21.2814C31.0173 21.2996 30.7233 21.3691 30.448 21.4866L26.455 17.577C25.9455 17.1093 25.2742 16.8491 24.5767 16.8491C23.8793 16.8491 23.2079 17.1093 22.6985 17.577C22.575 17.7008 22.4644 17.8365 22.3685 17.982C22.0592 17.6808 21.6793 17.4587 21.2622 17.3352C20.8451 17.2118 20.4035 17.1907 19.9762 17.2739C19.5489 17.357 19.1489 17.5419 18.8113 17.8122C18.4737 18.0826 18.2089 18.4301 18.04 18.8244L16.291 17.1072C15.7921 16.6181 15.1158 16.3436 14.4108 16.3441C13.7058 16.3447 13.0299 16.6201 12.5317 17.1099C12.0336 17.5997 11.754 18.2637 11.7545 18.9559C11.755 19.6481 12.0356 20.3117 12.5345 20.8008L12.606 20.871C12.2862 20.9932 11.9945 21.1768 11.748 21.411C11.2512 21.9008 10.9724 22.5639 10.9724 23.2551C10.9724 23.9463 11.2512 24.6094 11.748 25.0992L14.3 27.6048C13.9833 27.7297 13.6939 27.913 13.4475 28.1448L13.3815 28.215C13.1342 28.4568 12.938 28.7442 12.8041 29.0607C12.6702 29.3771 12.6013 29.7164 12.6013 30.0591C12.6013 30.4018 12.6702 30.7411 12.8041 31.0575C12.938 31.374 13.1342 31.6614 13.3815 31.9032L23.4355 41.8176C23.5566 41.9365 23.7122 42.0157 23.881 42.0444L27.4505 42.66L30.1125 45.279C30.268 45.4295 30.4771 45.5147 30.6955 45.5166C30.8038 45.5168 30.9111 45.4959 31.0112 45.4551C31.1113 45.4144 31.2021 45.3545 31.2785 45.279L32.45 44.0964L34.2485 45.9C34.3247 45.9778 34.4161 46.0399 34.5172 46.0826C34.6182 46.1252 34.727 46.1476 34.837 46.1484C34.947 46.1476 35.0557 46.1252 35.1568 46.0826C35.2578 46.0399 35.3492 45.9778 35.4255 45.9L43.802 37.6866C43.9571 37.5329 44.044 37.3252 44.044 37.1088C44.0438 37.002 44.0218 36.8963 43.9793 36.798C43.9367 36.6997 43.8746 36.6107 43.7965 36.5364ZM23.8645 18.7164C24.0633 18.5505 24.3158 18.4594 24.5767 18.4594C24.8377 18.4594 25.0901 18.5505 25.289 18.7164L29.15 22.5504C28.8725 23.0167 28.7531 23.5575 28.809 24.0948C28.8041 24.1252 28.8041 24.1562 28.809 24.1866L28.853 24.3864L23.5235 19.1538C23.6139 18.9951 23.7289 18.8511 23.8645 18.7272V18.7164ZM30.6955 43.5402L28.4295 41.31C28.3075 41.1922 28.1523 41.1132 27.984 41.0832L24.42 40.5L14.52 30.78C14.4263 30.6882 14.3521 30.5792 14.3014 30.4592C14.2507 30.3392 14.2246 30.2106 14.2246 30.0807C14.2246 29.9508 14.2507 29.8222 14.3014 29.7022C14.3521 29.5822 14.4263 29.4732 14.52 29.3814L14.5915 29.3112C14.7837 29.1319 15.0386 29.032 15.3037 29.032C15.5688 29.032 15.8238 29.1319 16.016 29.3112L20.295 33.5124C20.454 33.638 20.6548 33.7013 20.8585 33.69C21.0623 33.6787 21.2546 33.5937 21.3982 33.4513C21.5418 33.3089 21.6266 33.1194 21.6362 32.9192C21.6457 32.7191 21.5794 32.5225 21.45 32.3676L12.8975 23.9598C12.7204 23.7712 12.6245 23.5226 12.6298 23.2662C12.6351 23.0097 12.7412 22.7652 12.926 22.5838C13.1107 22.4024 13.3598 22.2982 13.621 22.293C13.8822 22.2878 14.1354 22.3819 14.3275 22.5558L22.693 30.78C22.7691 30.8557 22.8599 30.9158 22.9601 30.9566C23.0602 30.9974 23.1676 31.0181 23.276 31.0176C23.3845 31.019 23.4922 30.9987 23.5924 30.9579C23.6927 30.917 23.7834 30.8565 23.859 30.78C23.9361 30.7052 23.9974 30.616 24.0392 30.5178C24.081 30.4195 24.1025 30.3141 24.1025 30.2076C24.1025 30.1011 24.081 29.9957 24.0392 29.8974C23.9974 29.7992 23.9361 29.71 23.859 29.6352L15.4935 21.411L13.684 19.6398C13.5895 19.5479 13.5145 19.4386 13.4634 19.3181C13.4122 19.1976 13.3859 19.0684 13.3859 18.9378C13.3859 18.8073 13.4122 18.678 13.4634 18.5575C13.5145 18.437 13.5895 18.3277 13.684 18.2358C13.8761 18.0565 14.1311 17.9566 14.3962 17.9566C14.6613 17.9566 14.9163 18.0565 15.1085 18.2358L25.3 28.2312H25.3275C25.4843 28.3794 25.6946 28.4604 25.9123 28.4564C26.1299 28.4523 26.337 28.3636 26.488 28.2096C26.6389 28.0557 26.7214 27.8491 26.7173 27.6354C26.7132 27.4218 26.6228 27.2184 26.466 27.0702L19.7615 20.52C19.667 20.4281 19.592 20.3188 19.5409 20.1983C19.4897 20.0778 19.4634 19.9486 19.4634 19.818C19.4634 19.6875 19.4897 19.5582 19.5409 19.4377C19.592 19.3172 19.667 19.2079 19.7615 19.116C19.9536 18.9367 20.2086 18.8367 20.4737 18.8367C20.7388 18.8367 20.9938 18.9367 21.186 19.116L29.7 27.4806C29.8253 27.6056 29.9887 27.6869 30.1655 27.7122C30.3422 27.7376 30.5225 27.7055 30.679 27.621C30.8362 27.5373 30.9615 27.4056 31.0359 27.2459C31.1103 27.0861 31.1298 26.907 31.0915 26.7354L30.47 23.8896C30.4534 23.644 30.5367 23.402 30.7017 23.2167C30.8667 23.0315 31.0999 22.918 31.35 22.9014C31.5925 22.8846 31.8323 22.9608 32.0189 23.1138C32.2055 23.2668 32.3246 23.4849 32.351 23.7222V23.7978L34.716 34.4844C34.7487 34.6356 34.8251 34.7743 34.936 34.884L37.2075 37.1088L30.6955 43.5402ZM34.8535 44.1828L33.6325 42.9462L38.995 37.6812C39.1497 37.5295 39.2368 37.3236 39.237 37.1088C39.2356 36.8943 39.1487 36.6888 38.995 36.5364L36.3 33.9066L34.485 25.6824L34.1 23.9814C34.0933 23.7021 34.1933 23.4305 34.3805 23.22C34.4507 23.1346 34.5384 23.0645 34.6379 23.0143C34.7373 22.9641 34.8463 22.9349 34.958 22.9284C35.2005 22.9116 35.4403 22.9878 35.6269 23.1408C35.8135 23.2938 35.9326 23.5119 35.959 23.7492C35.959 23.7492 35.959 23.7978 35.959 23.8248L37.9995 33.0048C38.0322 33.1572 38.1108 33.2964 38.225 33.4044L42.0365 37.1142L34.8535 44.1828Z" fill="black"/>
<path d="M23.8645 18.7164C24.0633 18.5505 24.3158 18.4594 24.5767 18.4594C24.8377 18.4594 25.0901 18.5505 25.289 18.7164L29.15 22.5504C28.8725 23.0167 28.7531 23.5575 28.809 24.0948C28.8041 24.1252 28.8041 24.1562 28.809 24.1866L28.853 24.3864L23.5235 19.1538C23.6139 18.9951 23.7289 18.8511 23.8645 18.7272V18.7164ZM30.6955 43.5402L28.4295 41.31C28.3075 41.1922 28.1523 41.1132 27.984 41.0832L24.42 40.5L14.52 30.78C14.4263 30.6882 14.3521 30.5792 14.3014 30.4592C14.2507 30.3392 14.2246 30.2106 14.2246 30.0807C14.2246 29.9508 14.2507 29.8222 14.3014 29.7022C14.3521 29.5822 14.4263 29.4732 14.52 29.3814L14.5915 29.3112C14.7837 29.1319 15.0386 29.032 15.3037 29.032C15.5688 29.032 15.8238 29.1319 16.016 29.3112L20.295 33.5124C20.454 33.638 20.6548 33.7013 20.8585 33.69C21.0623 33.6787 21.2546 33.5937 21.3982 33.4513C21.5418 33.3089 21.6266 33.1194 21.6362 32.9192C21.6457 32.7191 21.5794 32.5225 21.45 32.3676L12.8975 23.9598C12.7204 23.7712 12.6245 23.5226 12.6298 23.2662C12.6351 23.0097 12.7412 22.7652 12.926 22.5838C13.1107 22.4024 13.3598 22.2982 13.621 22.293C13.8822 22.2878 14.1354 22.3819 14.3275 22.5558L22.693 30.78C22.7691 30.8557 22.8599 30.9158 22.9601 30.9566C23.0602 30.9974 23.1676 31.0181 23.276 31.0176C23.3845 31.019 23.4922 30.9987 23.5924 30.9579C23.6927 30.917 23.7834 30.8565 23.859 30.78C23.9361 30.7052 23.9974 30.616 24.0392 30.5178C24.081 30.4195 24.1025 30.3141 24.1025 30.2076C24.1025 30.1011 24.081 29.9957 24.0392 29.8974C23.9974 29.7992 23.9361 29.71 23.859 29.6352L15.4935 21.411L13.684 19.6398C13.5895 19.5479 13.5145 19.4386 13.4634 19.3181C13.4122 19.1976 13.3859 19.0684 13.3859 18.9378C13.3859 18.8073 13.4122 18.678 13.4634 18.5575C13.5145 18.437 13.5895 18.3277 13.684 18.2358C13.8761 18.0565 14.1311 17.9566 14.3962 17.9566C14.6613 17.9566 14.9163 18.0565 15.1085 18.2358L25.3 28.2312H25.3275C25.4843 28.3794 25.6946 28.4604 25.9123 28.4564C26.1299 28.4523 26.337 28.3636 26.488 28.2096C26.6389 28.0557 26.7214 27.8491 26.7173 27.6354C26.7132 27.4218 26.6228 27.2184 26.466 27.0702L19.7615 20.52C19.667 20.4281 19.592 20.3188 19.5409 20.1983C19.4897 20.0778 19.4634 19.9486 19.4634 19.818C19.4634 19.6875 19.4897 19.5582 19.5409 19.4377C19.592 19.3172 19.667 19.2079 19.7615 19.116C19.9536 18.9367 20.2086 18.8367 20.4737 18.8367C20.7388 18.8367 20.9938 18.9367 21.186 19.116L29.7 27.4806C29.8253 27.6056 29.9887 27.6869 30.1655 27.7122C30.3422 27.7376 30.5225 27.7055 30.679 27.621C30.8362 27.5373 30.9615 27.4056 31.0359 27.2459C31.1103 27.0861 31.1298 26.907 31.0915 26.7354L30.47 23.8896C30.4534 23.644 30.5367 23.402 30.7017 23.2167C30.8667 23.0315 31.0999 22.918 31.35 22.9014C31.5925 22.8846 31.8323 22.9608 32.0189 23.1138C32.2055 23.2668 32.3246 23.4849 32.351 23.7222V23.7978L34.716 34.4844C34.7487 34.6356 34.8251 34.7743 34.936 34.884L37.2075 37.1088L30.6955 43.5402ZM34.8535 44.1828L33.6325 42.9462L38.995 37.6812C39.1497 37.5295 39.2368 37.3236 39.237 37.1088C39.2356 36.8943 39.1487 36.6888 38.995 36.5364L36.3 33.9066L34.485 25.6824L34.1 23.9814C34.0933 23.7021 34.1933 23.4305 34.3805 23.22C34.4507 23.1346 34.5384 23.0645 34.6379 23.0143C34.7373 22.9641 34.8463 22.9349 34.958 22.9284C35.2005 22.9116 35.4403 22.9878 35.6269 23.1408C35.8135 23.2938 35.9326 23.5119 35.959 23.7492C35.959 23.7492 35.959 23.7978 35.959 23.8248L37.9995 33.0048C38.0322 33.1572 38.1108 33.2964 38.225 33.4044L42.0365 37.1142L34.8535 44.1828Z" fill="white"/>
<path d="M22.6765 15.66C22.8949 15.6581 23.104 15.5729 23.2595 15.4224L26.8235 11.88C26.9767 11.7274 27.0626 11.5218 27.0626 11.3076C27.0626 11.0934 26.9767 10.8878 26.8235 10.7352C26.7473 10.6595 26.6565 10.5993 26.5564 10.5583C26.4564 10.5172 26.349 10.4961 26.2405 10.4961C26.1321 10.4961 26.0247 10.5172 25.9246 10.5583C25.8245 10.5993 25.7337 10.6595 25.6575 10.7352L22.0935 14.2344C21.9618 14.3444 21.8686 14.4924 21.8271 14.6572C21.7856 14.8221 21.798 14.9956 21.8624 15.1532C21.9269 15.3108 22.0402 15.4445 22.1863 15.5355C22.3323 15.6264 22.5038 15.67 22.6765 15.66Z" fill="black"/>
<path d="M16.2745 15.2118C16.4292 15.3635 16.6389 15.4487 16.8575 15.4487C17.0761 15.4487 17.2858 15.3635 17.4405 15.2118C17.5176 15.137 17.5789 15.0478 17.6207 14.9496C17.6625 14.8513 17.6841 14.7459 17.6841 14.6394C17.6841 14.5329 17.6625 14.4275 17.6207 14.3292C17.5789 14.231 17.5176 14.1418 17.4405 14.067L13.8765 10.5624C13.7211 10.4106 13.5107 10.3256 13.2915 10.3261C13.0723 10.3266 12.8623 10.4126 12.7077 10.5651C12.5531 10.7176 12.4665 10.9242 12.467 11.1394C12.4676 11.3546 12.5551 11.5608 12.7105 11.7126L16.2745 15.2118Z" fill="black"/>
<path d="M19.7669 14.4234C19.9857 14.4234 20.1956 14.3381 20.3503 14.1862C20.505 14.0343 20.5919 13.8282 20.5919 13.6134V8.64C20.5919 8.42518 20.505 8.21915 20.3503 8.06725C20.1956 7.91534 19.9857 7.83 19.7669 7.83C19.5481 7.83 19.3383 7.91534 19.1836 8.06725C19.0289 8.21915 18.9419 8.42518 18.9419 8.64V13.5918C18.939 13.7 18.9582 13.8076 18.9983 13.9084C19.0385 14.0092 19.0988 14.1011 19.1757 14.1786C19.2526 14.2561 19.3445 14.3177 19.4461 14.3597C19.5476 14.4018 19.6567 14.4234 19.7669 14.4234Z" fill="black"/>
</svg>
